X: 28723
T: My Fair Tara
R: waltz
M: 3/4
K: Dmajor
FE|F2 B3c|d2 B3d|c2 (F4|F3)G FE|F2 B3c|
d2 f3e|c3B cd|c2 B3A|F2 B3c|d2 B3d|
c2 (F4|F3)E FA|G3F GB|A2 E3A|F3G FE|
F2 B2 A2|G3F GB|A2 E3A|(D6|D4):|
EF|G3F Gd|B2 G2 d2|F3E Fd|B2 F2 D2|E3D EF|
G2 B2 d2|cd e2 c2|f6|G3F Gd|B2 G2 d2|
F3E Fd|B2 F2 D2|E3D EF|G2 B2 A2|F3E FG|
F2 E2 D2|E3D EF|G2 B3A|(D6|D4):|

